X:634
T:Vals efter Kungs Otto Johansson
T:(Sv. L. Sm. 222)
R:Vals
Z:Jonas Brunskog
O:Markaryd, Småland
S:Efter Nils Bernhard Ljunggren
S:Efter Kungs Otto Johansson
B:Svenska Låtar Småland
N:Sv. L. Sm. 222
N:Ljunggren hade låten efter Kungs Otto Johansson.
N:Ljuggren spelade låten i tredje läget.
M:3/4
L:1/8
K:D
|:ag eg eg|ba f2 f2|af df df|d'b g2 g2|
ag eg eg|ba f2 f2|ag ba ge|d2 z2 z2:|
|:d2 (Ad) fa|d'3 c' b2|ag eg eg|ba f2 f2|
d2 (Ad) fa|d'3 c' b2|ag ba ge|d2 z2 z2:|
(:musicend:)

(:music:)
